X:1
T:Borodin String Quartet No. 2 (Vln. 2)
T:Borodin String Quartet No. 2 (Vln. 2)
L:1/8
Q:1/4=60
M:3/4
K:A
V:1 treble nm="Piano" snm="Pno."
V:1
"^, lightly"!p!"^E" A,C A,C A,C | B,D B,D B,D | B,D B,D B,D | B,D B,D B,D | ^A,C A,C A,C | %5
 B,D B,D B,D | B,D B,D B,D | B,D B,D B,D | A,C A,C A,C | B,D B,D B,D | B,D B,D B,D | B,D B,D B,D | %12
 ^A,C A,C A,C | B,D B,D B,D | B,D B,D B,D | B,C B,C B,C | A,C A,C A,C | A,B, A,B, A,B, | %18
 A,B, A,B, A,B, | CE CE CE | B,D B,D B,D | A,C A,C A,C | A,B, A,B, A,"^F"B, |] %23

